svg/OSM-icons/amenity #7bffff °373737 !label=enamenities,deEinrichtungen/12397;amenity=fast_food;!#cuisine=waffle;feature_group=food;[fast_food];!label=enfast food waffle,deFast Food Waffeln.svg

<svg xmlns="http://www.w3.org/2000/svg" viewBox="0 0 580 580" enable-background="new 0 0 580 580"><path fill="#111" stroke="#eee" stroke-width="3.408" d="m66.28 1.768c-41.34 0-64.57 21.371-64.57 65.04v450.12c0 40.844 20.894 62.23 62.19 62.23h452.02c41.31 0 62.23-20.316 62.23-62.23v-450.12c0-42.601-20.923-65.04-63.52-65.04-.003 0-448.49-.143-448.35 0z"/><g fill="#fff"><path d="m94.5 57.2c-.185-.901-.559-1.753-1.098-2.499-.424-.586-4.34-5.753-11.321-6.583-3.509-.416-8.958.178-15.06 5.349l-19.885 15.481c-2.833 2.205-3.342 6.289-1.136 9.122 2.205 2.834 6.29 3.341 9.122 1.136l20-15.57c.081-.063.16-.127.237-.194 1.966-1.685 3.783-2.547 5.11-2.423.667.062 1.249.369 1.68.682l13.12 63.935h-47.14l20.06 139.37h70.31l14.625-139.37h-44.585l-14.05-68.44"/><path d="m241.82 126.58l4.46-22.71-8.41-1.65-4.79 24.36h-6.88l7.8-39.67-8.42-1.66-5.45 27.77-10.16-35.98-8.26 2.33 13.33 47.21h-1.15-19.03l10.7-26.18-7.94-3.24-10.1 24.73-10.22-36.18-8.25 2.33 10.88 38.54h-12.84l23.4 68.71 23.4 68.72 23.4-68.72 23.4-68.71z"/><path d="m521.44 194.9l-174.71-55.14c-22.653-7.15-46.811 5.417-53.962 28.07l-84.87 268.9c-7.15 22.651 5.417 46.812 28.07 53.961l174.71 55.14c22.654 7.149 46.813-5.418 53.963-28.07l84.87-268.9c7.149-22.651-5.419-46.811-28.07-53.961m-246.83 256.78l-31.31-9.882 9.882-31.31 31.31 9.882-9.882 31.31m17.872-56.622l-31.31-9.884 9.882-31.31 31.31 9.884-9.882 31.31m17.873-56.622l-31.31-9.884 9.882-31.31 31.31 9.882-9.882 31.31m17.87-56.624l-31.31-9.882 9.882-31.31 31.31 9.882-9.884 31.31m17.872-56.622l-31.31-9.882 9.884-31.31 31.31 9.882-9.884 31.31m-18.781 243.13l-31.31-9.882 9.882-31.31 31.31 9.882-9.882 31.31m17.873-56.622l-31.31-9.884 9.882-31.31 31.31 9.884-9.882 31.31m17.872-56.625l-31.31-9.882 9.882-31.31 31.31 9.882-9.883 31.31m17.871-56.622l-31.31-9.882 9.882-31.31 31.31 9.882-9.882 31.31m17.872-56.622l-31.31-9.882 9.882-31.31 31.31 9.883-9.882 31.31m-18.779 243.13l-31.31-9.882 9.882-31.31 31.31 9.882-9.882 31.31m17.873-56.622l-31.31-9.882 9.882-31.31 31.31 9.882-9.882 31.31m17.872-56.622l-31.31-9.882 9.882-31.31 31.31 9.882-9.882 31.31m17.872-56.622l-31.31-9.884 9.882-31.31 31.31 9.881-9.882 31.31m17.87-56.623l-31.31-9.882 9.884-31.31 31.31 9.882-9.884 31.31m-18.781 243.12l-31.31-9.882 9.884-31.31 31.31 9.884-9.884 31.31m17.873-56.622l-31.31-9.882 9.884-31.31 31.31 9.882-9.882 31.31m17.871-56.622l-31.31-9.882 9.882-31.31 31.31 9.884-9.882 31.31m17.872-56.624l-31.31-9.882 9.882-31.31 31.31 9.884-9.882 31.31m17.872-56.621l-31.31-9.883 9.882-31.31 31.31 9.881-9.882 31.31"/></g></svg>

<?xml version="1.0" encoding="utf-8"?>
<!-- Generator: Adobe Illustrator 15.0.0, SVG Export Plug-In . SVG Version: 6.00 Build 0)  -->
<!DOCTYPE svg PUBLIC "-//W3C//DTD SVG 1.1//EN" "http://www.w3.org/Graphics/SVG/1.1/DTD/svg11.dtd">
<svg version="1.1" xmlns="http://www.w3.org/2000/svg" xmlns:xlink="http://www.w3.org/1999/xlink" x="0px" y="0px" width="580px"
	 height="580px" viewBox="0 0 580 580" enable-background="new 0 0 580 580" xml:space="preserve">
<g id="Layer_2">
	<g id="g1327">
		<path id="path1329" fill="#111111" stroke="#EEEEEE" stroke-width="3.408" d="M66.275,1.768
			c-41.335,0-64.571,21.371-64.571,65.036v450.123c0,40.844,20.894,62.229,62.192,62.229H515.92
			c41.307,0,62.229-20.316,62.229-62.229V66.804c0-42.601-20.923-65.036-63.522-65.036C514.624,1.768,66.133,1.625,66.275,1.768z"/>
	</g>
</g>
<g id="svg2" inkscape:version="0.46" sodipodi:docname="waste_bin.svg" sodipodi:version="0.32" xmlns:cc="http://creativecommons.org/ns#" xmlns:dc="http://purl.org/dc/elements/1.1/" xmlns:rdf="http://www.w3.org/1999/02/22-rdf-syntax-ns#" xmlns:inkscape="http://www.inkscape.org/namespaces/inkscape" xmlns:svg="http://www.w3.org/2000/svg" xmlns:sodipodi="http://sodipodi.sourceforge.net/DTD/sodipodi-0.dtd" inkscape:output_extension="org.inkscape.output.svg.inkscape">
	<g>
		<path fill="#FFFFFF" d="M94.504,57.205c-0.185-0.901-0.559-1.753-1.098-2.499c-0.424-0.586-4.34-5.753-11.321-6.583
			c-3.509-0.416-8.958,0.178-15.055,5.349L47.145,68.953c-2.833,2.205-3.342,6.289-1.136,9.122c2.205,2.834,6.29,3.341,9.122,1.136
			l20-15.57c0.081-0.063,0.16-0.127,0.237-0.194c1.966-1.685,3.783-2.547,5.11-2.423c0.667,0.062,1.249,0.369,1.68,0.682
			l13.124,63.935H48.137l20.06,139.367h70.315l14.625-139.367h-44.585L94.504,57.205z"/>
		<polygon fill="#FFFFFF" points="241.824,126.582 246.284,103.871 237.867,102.217 233.083,126.582 226.204,126.582 
			233.995,86.906 225.579,85.252 220.126,113.016 209.969,77.042 201.714,79.372 215.042,126.582 213.887,126.582 194.863,126.582 
			205.563,100.401 197.623,97.156 187.516,121.885 177.302,85.708 169.047,88.039 179.929,126.582 167.086,126.582 190.487,195.294 
			213.887,264.007 237.288,195.294 260.688,126.582 		"/>
	</g>
	<path fill="#FFFFFF" d="M521.436,194.895l-174.708-55.144c-22.653-7.15-46.811,5.417-53.962,28.07l-84.872,268.896
		c-7.15,22.651,5.417,46.812,28.069,53.961l174.708,55.144c22.654,7.149,46.813-5.418,53.963-28.07l84.872-268.896
		C556.655,226.205,544.087,202.045,521.436,194.895z M274.608,451.674l-31.309-9.882l9.882-31.309l31.309,9.882L274.608,451.674z
		 M292.48,395.052l-31.309-9.884l9.882-31.309l31.309,9.884L292.48,395.052z M310.353,338.43l-31.309-9.884l9.882-31.309
		l31.309,9.882L310.353,338.43z M328.223,281.806l-31.307-9.882l9.882-31.308l31.309,9.882L328.223,281.806z M346.095,225.184
		l-31.309-9.882l9.884-31.309l31.309,9.882L346.095,225.184z M327.314,468.31l-31.309-9.882l9.882-31.309l31.309,9.882
		L327.314,468.31z M345.187,411.688l-31.309-9.884l9.882-31.309l31.309,9.884L345.187,411.688z M363.059,355.063l-31.31-9.882
		l9.882-31.309l31.311,9.882L363.059,355.063z M380.93,298.441l-31.309-9.882l9.882-31.309l31.309,9.882L380.93,298.441z
		 M398.802,241.819l-31.309-9.882l9.882-31.309l31.309,9.883L398.802,241.819z M380.023,484.945l-31.309-9.882l9.882-31.309
		l31.309,9.882L380.023,484.945z M397.896,428.323l-31.309-9.882l9.882-31.309l31.309,9.882L397.896,428.323z M415.768,371.701
		l-31.309-9.882l9.882-31.309l31.309,9.882L415.768,371.701z M433.64,315.079l-31.309-9.884l9.882-31.308l31.309,9.881
		L433.64,315.079z M451.51,258.456l-31.309-9.882l9.884-31.309l31.309,9.882L451.51,258.456z M432.729,501.581l-31.309-9.882
		l9.884-31.309l31.309,9.884L432.729,501.581z M450.602,444.959l-31.31-9.882l9.884-31.309l31.308,9.882L450.602,444.959z
		 M468.473,388.337l-31.309-9.882l9.882-31.311l31.309,9.884L468.473,388.337z M486.345,331.713l-31.309-9.882l9.882-31.309
		l31.309,9.884L486.345,331.713z M504.217,275.092l-31.309-9.883l9.882-31.309l31.309,9.881L504.217,275.092z"/>
</g>
</svg>
